src/assets-svg/invoiceicon.svg

<svg width="16" height="20" viewBox="0 0 16 20" fill="none" xmlns="http://www.w3.org/2000/svg">
<path d="M10 1V5C10 5.26522 10.1054 5.51957 10.2929 5.70711C10.4804 5.89464 10.7348 6 11 6H15" stroke="#F5FAFF" stroke-width="2" stroke-linecap="round" stroke-linejoin="round"/>
<path d="M5 5H6M5 11H11M9 15H11M13 19H3C2.46957 19 1.96086 18.7893 1.58579 18.4142C1.21071 18.0391 1 17.5304 1 17V3C1 2.46957 1.21071 1.96086 1.58579 1.58579C1.96086 1.21071 2.46957 1 3 1H10L15 6V17C15 17.5304 14.7893 18.0391 14.4142 18.4142C14.0391 18.7893 13.5304 19 13 19Z" stroke="#F5FAFF" stroke-width="2" stroke-linecap="round" stroke-linejoin="round"/>
</svg>

<svg width="16" height="20" fill="none" xmlns="http://www.w3.org/2000/svg"><path d="M10 1v4a1 1 0 0 0 1 1h4" stroke="#F5FAFF" stroke-width="2" stroke-linecap="round" stroke-linejoin="round"/><path d="M5 5h1m-1 6h6m-2 4h2m2 4H3a2 2 0 0 1-2-2V3a2 2 0 0 1 2-2h7l5 5v11a2 2 0 0 1-2 2Z" stroke="#F5FAFF" stroke-width="2" stroke-linecap="round" stroke-linejoin="round"/></svg>
